X:1
T:J'ay veu le temps
T:Clement Janequin
T:Source : Livre I de 29 chansons nouvelles à 4 parties---Paris---P.Attaingnant---1535. Editor :André Vierendeels (24/09/18) 
T:J'ay veu le temps
T:©
T:©
T:©
T:©
C:Clement Janequin
Z:©
%%score [ 1 [ 2 3 ] 4 ]
L:1/8
Q:1/4=120
M:2/2
K:F
V:1 treble nm="Soprano" snm="S"
V:2 treble-8 nm="Tenor 1" snm="T 1"
V:3 treble-8 nm="Tenor 2" snm="T 2"
V:4 bass nm="Bass" snm="B"
V:1
 G4 F2 G2 | AGAB c3 B | A2 G2 G2 F2 | G4 z2 A2 | A2 A2 F3 D | E2 F2 G2 G2 | F4 z2 A2 | A2 A2 F3 D | %8
w: J'ay veu le|temps _ _ _ _ qu'on|me soul- loyt ay-|mer, bai-|ser, che- rir et|trop plus e- sti-|mer, que|me- ti- te n'a-|
 E2 F2 G2 G2 |[M:3/4] F4 B2 | B4 B2 |[M:2/2] A2 A2 A2 A2 | A2 G2 FEDC | B,2 B3 A A2 | B2 B2 B3 A | %15
w: voyent mes faictz et|dictz, al-|lant par-|tout, sans aul- cun|con tre- * * * *||dict, mais main- te|
 G2 G2 G2 G2 | F2 F2 DEFD | EDCB, C4 | B,2 D3 D D2 | D2 z2 B3 B | B2 FB BBBB | AG G4 F2 | %22
w: nant caul- cun pre-|sent ne por- * * *||te, ne- sci- o|vos, ne- sci-|o vos, l'on me dict à la|por- * * *|
 G2 B3 B B2 | F2 z2 B3 B | B2 FB BBBB | AG G4 F2 | G8 |] %27
w: te, ne- sci- o|vos, ne- sci-|o vos, l'on me dict à la|por- * * *|te|
V:2
 d4 d2 d2 | f3 e/d/ cBAG | F2 d2 d3 c | B2 B2 A2 f2 | f2 e2 d4 | z2 A2 G3 A | B2 B2 A2 f2 | %7
w: J'ay veu le|temps _ _ _ _ _ _|_ qu'on me soul-|loyt ay- mer, bai-|ser, che- rir|et trop plus|e- sti- mer, que|
 f2 e2 d2 d2 | c2 B2 G2 G2 |[M:3/4] A4 g2 | g4 f2 |[M:2/2] f3 e/d/ c2 c2 | c2 c2 A2 f2 | %13
w: me- ri- te n'a-|voyent mes faictz et|dictz, al-|lant par-|tout, _ _ _ al-|lant par- tout sans|
 f2 f2 f2 f2 | d4 z4 | z2 G2 G3 A | BA d4 c2- | cB B4 A2 | B4 f3 f | f2 g3 g g2 | f2 B2 f2 f2 | %21
w: aul- cun con- tre-|dict,|caul- cun pre-|sent _ _ ne|_ _ por- *|te, ne- sci-|o, ne- sci- o|vos l'on me dict|
"^b" e2 c2 d4 | d4 d3 d | d2 g3 g g2 | f2 B2 f2 f2 |"^b" e2 c2 d4 | d8 |] %27
w: à la por-|te, ne- sci-|o, ne- sci- o|vos l'on me dict|à la por-|te.|
V:3
 G4 A2 B2 | c4 z2 c2 | c2 B2 A2 A2 | G4 z2 d2 | d2 c2 d3 G | G2 d2 d2 c2 | d4 z2 d2 | d2 c2 d3 G | %8
w: J'ay veu le|temps qu'on|me soul- loyt ay-|mer, bai-|ser, che- rir et|trop plus e- sti-|mer, que|me- ri- te n'a-|
 G2 d2 d2 c2 |[M:3/4] d4 d2 | d4 d2 |[M:2/2] c4 z2 f2 | f2 e2 d2 d2 | d2 d2 c2 c2 | B4 z2 G2 | %15
w: voyent mes faictz et|dictz, al-|lant par-|tout, al-|lant par- tout sans|aul- cun con- tre-|dict, mais|
 B3 B c2 c2 | d2 A2 B2 F2 | G4 F4- | F4 z2 B2- | BB B2 B2 e2- | ed d2 d2 d2 | cBAG A4 | G4 z2 B2- | %23
w: main- te- nant caul-|cun pre- sent ne|por- te,|_ ne-|* sci- o vos, ne-|* sci- o vos l'on|me dict à la por-|te, ne-|
 BB B2 B2 e2- | ed d2 d2 d2 | cBAG A4 | G8 |] %27
w: * sci- o vos, ne-|* sci- o vos l'on|me dict à la por-|te|
V:4
 G,4 D,2 G,2 | F,E,F,G, A,2 F,2 | F,2 G,2 D,2 D,2 | G,3 G, F,2 D,2 | A,4 z2 B,,2 | %5
w: J'ay veu le|temps _ _ _ _ qu'on|me soul- loit ay-|mer, bai- ser, che-|rir et|
 C,2 D,2 E,2 E,2 | D,3 D, D,2 D,2 | A,4 z2 B,,2 |"^b" C,2 D,2 E,2 E,2 |[M:3/4]"^b" D,4 G,2 | %10
w: trop plus e- sti-|mer, que me- ri-|te n'a-|vouent mes faictz et|dictz, al-|
 G,4 B,2 |[M:2/2] F,2 F,2 F,2 F,2 | F,2 C,2 D,2 B,,2 | B,,2 B,,2 F,2 F,2 |"^b" B,,4 z2 E,2 | %15
w: lant par-|tout sans aul- cun|con- tre- dict,, sans|aul- cun con- tre-|dict, mais|
"^b""^b" E,4 E,4 | D,4 z4 | z8 |"^#" B,,3 B,, B,,2 B,,2- |"^b" B,,2 E,3 E, E,2 | %20
w: main- te-|nant||ne- sci- o vos,|_ ne- sci- o|
"^b""^b""^b" B,,3 B,, B,,2 B,,2 |"^b" C,2 E,2 D,4 |"^#" G,,8 |"^b""^b""^b" z2 E,3 E, E,2 | %24
w: vos l'on me dict|à la por-|te,|ne- sci- o|
"^b" B,,3 B,, B,,2 B,,2 |"^b" C,2 E,2 D,4 | G,,8 |] %27
w: vos, l'on me dict|à la por-|te.|

